!! 00000] TT[WS
!!!OTL: Wangxiaoer ganji
!!!ARE: Asia, China,ÿShanxi Dingxiang
!! Ethnic Group: Han
!! WI, 156 (3)
!!!SCT: J0189
!!!YEM: Copyright 1995, estate of Helmut Schaffrath.
**kern
*ICvox
*Ivox
*M2/4
*k[b-]
*F:
{8.ff
16dd
8ff
16dd
16cc
=1
8.ff
16dd
8ff
16dd
16cc
=2
8ff
16dd
16cc
8a
16g
16a
=3
2cc}
=4
{8r
8ff
8a
8cc
=5
8.dd
16cc
8a
8g
=6
8f
16g
16cc
8d
16f
16d
=7
2c}
=8
{8a
16a
16a
16g
16a
16g
16cc
=9
8d
8f
8c
16c
16d
=10
8.f
16f
8d
8f}
=11
{8.g
16a
8cc
8dd
=12
8.ff
16dd
16ff
16dd
8cc
=13
8dd
16dd
16cc
8d
16d
16f
=14
16g
16a
16g
16d
4c}
==
!!!AGN: Xiaodiao. Qingge
!!!ONB: ESAC (Essen Associative Code) Database: CHINA
!!!AMT: simple duple
!!!AIN: vox
!!!EED: Helmut Schaffrath
!!!EEV: 1.0
*-
